X: 40480
T: Tombigbee
R: waltz
M: 3/4
K: Amajor
cB|A2 c2 c2|e4 cB|A2 c2 c2|e4 cd|c2 B2 A2|B4 ce|f2 fgfe|
c4cB|A2 c2 c2|e4 cB|A2 c2 c2|e4 cd|c2 B2 A2|B4 ce|f4 e2|A4 e2|
a4 e2|a4 e2|f2 fgfe|c4 cd|c2 B2 A2|B4 ce|f4 e2|c4
e2|a4 e2|a4 e2|f2 fgfe|c4 cd|c2 B2 A2|B4 ce|f4 e2|A4||

